X: 32
T: The Brig o Potarch
C: J.S.Skinner
R: strathspey
B:
Z: 2006 John Chambers <jc:trillian.mit.edu>
M: C
L: 1/8
K: Em
B \
| "Em"{F}G>F E<B B,<E {F}G>B | "D"AB/^c/ d>A F<D D>F \
| "Em"G>F E<B B,<E {F}G>A | "Em"B>e "B"^d<f "Em"e>E E :|
B \
| "Em"e>g "B"f<g "Em"e<b g>e | "A"AB/^c/ d>A "D"F<D D>B \
| "Em"e>g f<g "C"e<b g>e | "B"B^c/^d/ e>B "Em"G<E E> ||
B \
| "Em"e/f/g "B"f/e/^d "C"e/=d/c "G"B/A/G | "D"(3AB^c (3dAG F<D D>F \
| "Em"{F}G>F E<B "C"B,<E {F}G>A | "B"(3Beg (3fBb "Em"g<e e |]

%%sep 1 1 500

